X: 160
T:Miss McLaine of Tarloisk's Strathspey
S:Alexander Campbell sheet with first tune Balthayoch House
B:NLS Glen.348(15)
N:another copy in Wighton Collection, Dundee
M:C
L:1/8
Q:1/4=88
K:F#Min
% minor/phrygian hexatonic
A>FE<C {C}E2E2|A<FF>E {E}F2F2|A>FEd {d}cB/A/B2|[BE][BE] {d}cB/A/ {A}F2F2||
E>F Ec/e/    d/c/B/A/ e3/c//A//|F<f     Tf>e      a>e f2|\
e2  d/c/B/A/ B/A/B/c/ e/d/c/B/ |c/e/f/e/ d/c/B/A/ F2  F2|
A>FE<C {C}E2E2|A<FF>E {E}F2F2|A>FEd {d}cB/A/B2|[BE][BE] {d}cB/A/    F2F2|]

This tune (somewhat more accessible, but not widely sung today) only has
the second as an unimportant leading note:

